icons/delete/delete.svg

<svg width="14" height="14" viewBox="0 0 14 14" fill="none" xmlns="http://www.w3.org/2000/svg">
<path d="M6.25365 8.74635L9.75 5.25M9.75 8.75L6.25 5.25" stroke="red" stroke-linecap="round" stroke-linejoin="round"/>
<path d="M5.20711 3.29289L2.20711 6.29289C1.81658 6.68342 1.81658 7.31658 2.20711 7.70711L5.20711 10.7071C5.39464 10.8946 5.649 11 5.91421 11H11C11.5523 11 12 10.5523 12 10V4C12 3.44772 11.5523 3 11 3H5.91421C5.649 3 5.39464 3.10536 5.20711 3.29289Z" stroke="red" stroke-linecap="round" stroke-linejoin="round"/>
</svg>

<svg xmlns="http://www.w3.org/2000/svg" width="14" height="14" fill="none" viewBox="0 0 14 14"><path stroke="red" stroke-linecap="round" stroke-linejoin="round" d="M6.254 8.746 9.75 5.25m0 3.5-3.5-3.5M5.207 3.293l-3 3a1 1 0 0 0 0 1.414l3 3a1 1 0 0 0 .707.293H11a1 1 0 0 0 1-1V4a1 1 0 0 0-1-1H5.914a1 1 0 0 0-.707.293"/></svg>
